X:319
T:Callan Lasses, The
Z:posted by Andrew Kuntz 2/01
L:1/8
M:C|
R:Reel
S:O'Neill - 1001 Gems (717)
K:D
AD (3DDD ADFD|ADEA BcdB|AD (3DDD ADFA|GFEF GABd|AD (3DDD ADFD|
ADFA BcdB|AD (3DDD ADFA|GFEF GABc||d2 fd AdFA|d2 fd cdec|
d2 fd (3Bcd AF|GFEF GABc|d2 fd AdFA|d2 fd cdeg|fdec dBAF|GFEF GABd||
